X: 1501
T: the Galbally Lasses
T: na cailini.de ua gall-.baile.
R: reel
B: O'Neill's "Music of Ireland" 1850 #1501
O: Cronin
Z: transcribed by John B. Walsh, walsh@math.ubc.ca 8/23/96
Z: Compacted via repeats and multiple endings [JC]
M: C|
L: 1/8
K: D
(de) |\
fgfe dcdA | BdAd BdAd | fgfe dcdA | BdAF FEEd  ||\
fgfe dcdA | BdAd BdAg | afge fdec | dBAG FDD2 |]
[|\
fgab afdf | gaba bgeg | fgab afdA | BdAF FEEe ||\
fgab afdf | gaba bgeg | fgef defe | dBAG FDD2 |]
[|\
FEFD FAAc | BAdA BAdA | FEFD FAAc | BAdF FEEG ||\
FEFD FAAc | BAdA cdeg | fgef defe | dBAG FDD2 |]
